;FLAVOR:Marlin
;TIME:9920
;Filament used: 5.9625m, 2.35192m
;Layer height: 0.15
;MINX:33.435
;MINY:80.802
;MINZ:0.3
;MAXX:203.816
;MAXY:223.816
;MAXZ:17.55
;Generated with Cura_SteamEngine 4.6.1
T0
M82 ;absolute extrusion mode
;GeeeTech A20M start script
G28 ;home
G90 ;absolute positioning
G1 X0 Y0 Z15 E0 F300 ;go to wait position
M140 S100 ;set bed temp
M109 S230 ;set extruder temp and wait
G1 Z0.8 F200 ;set extruder height
G1 X220 Y0 E80 F1000 ;purge line
;end of start script
G92 E0
G92 E0
G1 F2100 E-0.8
;LAYER_COUNT:116
;LAYER:0
M107
G0 F3600 X36.495 Y164.893 Z0.3
;TYPE:SKIRT
G1 F2100 E0
G1 F1800 X36.005 Y164.767 E0.02524
G1 X35.541 Y164.565 E0.05049
G1 X35.115 Y164.293 E0.07571
G1 X34.737 Y163.958 E0.1009
G1 X34.417 Y163.567 E0.12611
G1 X34.162 Y163.13 E0.15135
G1 X33.979 Y162.659 E0.17656
G1 X33.872 Y162.165 E0.20178
G1 X33.836 Y161.495 E0.23525
G1 X33.835 Y90.106 E3.79687
G1 X33.844 Y89.417 E3.83124
G1 X33.891 Y88.914 E3.85645
G1 X34.016 Y88.424 E3.88168
G1 X34.217 Y87.96 E3.9069
G1 X34.488 Y87.533 E3.93214
G1 X34.823 Y87.155 E3.95733
G1 X35.214 Y86.834 E3.98257
G1 X35.65 Y86.578 E4.0078
G1 X36.121 Y86.395 E4.03301
G1 X36.615 Y86.288 E4.05823
G1 X37.275 Y86.251 E4.0912
G1 X108.68 Y86.25 E7.65361
G1 X110.668 Y86.282 E7.75281
G1 X113.407 Y86.289 E7.88946
G1 X116.159 Y86.219 E8.0268
G1 X118.87 Y86.073 E8.16225
G1 X121.617 Y85.846 E8.29976
G1 X124.322 Y85.546 E8.43554
G1 X127.045 Y85.166 E8.57271
G1 X129.728 Y84.713 E8.70846
G1 X132.42 Y84.181 E8.84536
G1 X133.14 Y84.021 E8.88216
G1 X134.15 Y83.817 E8.93357
G1 X136.876 Y83.228 E9.07271
G1 X139.482 Y82.586 E9.20661
G1 X143.161 Y81.549 E9.39731
G1 X143.724 Y81.378 E9.42666
G1 X144.209 Y81.265 E9.45151
G1 X144.711 Y81.203 E9.47674
G1 X145.328 Y81.22 E9.50754
G1 X146.496 Y81.324 E9.56604
G1 X149.691 Y81.587 E9.72598
G1 X152.439 Y81.723 E9.86324
G1 X155.159 Y81.781 E9.99897
G1 X157.911 Y81.762 E10.13628
G1 X160.63 Y81.666 E10.27201
G1 X163.388 Y81.491 E10.40989
G1 X165.249 Y81.328 E10.50309
G1 X166.332 Y81.223 E10.55737
G1 X166.704 Y81.202 E10.57596
G1 X167.209 Y81.22 E10.60117
G1 X167.804 Y81.337 E10.63142
G1 X170.459 Y81.917 E10.76701
G1 X173.204 Y82.438 E10.9064
G1 X175.846 Y82.858 E11.03986
G1 X178.599 Y83.219 E11.17839
G1 X181.305 Y83.496 E11.3141
G1 X184.011 Y83.696 E11.44947
G1 X186.766 Y83.822 E11.58706
G1 X189.851 Y83.87 E11.74099
G1 X190.893 Y83.88 E11.79298
G1 X191.396 Y83.927 E11.81818
G1 X191.886 Y84.053 E11.84342
G1 X192.349 Y84.255 E11.86862
G1 X192.776 Y84.527 E11.89388
G1 X193.169 Y84.868 E11.91984
G1 X193.61 Y85.303 E11.95074
G1 X194.129 Y85.833 E11.98775
G1 X194.453 Y86.221 E12.01297
G1 X194.711 Y86.656 E12.0382
G1 X194.898 Y87.125 E12.06339
G1 X195.009 Y87.619 E12.08865
G1 X195.04 Y87.998 E12.10763
G1 X195.052 Y88.532 E12.13427
G1 X195.053 Y158.07 E15.60354
G1 X195.057 Y159.864 E15.69304
G1 X195.136 Y162.624 E15.8308
G1 X195.292 Y165.369 E15.96797
G1 X195.522 Y168.078 E16.1036
G1 X195.83 Y170.783 E16.23943
G1 X196.218 Y173.504 E16.37655
G1 X196.679 Y176.195 E16.51276
G1 X197.221 Y178.896 E16.6502
G1 X197.827 Y181.531 E16.7851
G1 X198.53 Y184.227 E16.9241
G1 X199.286 Y186.829 E17.05928
G1 X200.128 Y189.443 E17.19629
G1 X201.377 Y192.928 E17.38099
G1 X201.849 Y194.169 E17.44723
G1 X202.111 Y194.975 E17.48951
G1 X202.747 Y197.071 E17.59879
G1 X202.954 Y197.787 E17.63597
G1 X203.059 Y198.312 E17.66268
G1 X203.138 Y199.003 E17.69738
G1 X203.356 Y201.203 E17.80768
G1 X203.416 Y201.906 E17.84288
G1 X203.418 Y202.436 E17.86932
G1 X203.36 Y203.158 E17.90546
G1 X203.142 Y205.355 E18.01561
G1 X203.064 Y206.054 E18.05069
G1 X202.963 Y206.567 E18.07678
G1 X202.767 Y207.26 E18.11271
G1 X202.139 Y209.333 E18.22077
G1 X201.906 Y210.066 E18.25915
G1 X201.703 Y210.558 E18.2857
G1 X201.41 Y211.128 E18.31767
G1 X200.365 Y213.084 E18.42831
G1 X199.991 Y213.762 E18.46694
G1 X199.699 Y214.199 E18.49317
G1 X199.302 Y214.7 E18.52506
G1 X197.903 Y216.407 E18.63517
G1 X197.392 Y217.012 E18.67468
G1 X197.014 Y217.391 E18.70138
G1 X196.494 Y217.831 E18.73536
G1 X194.812 Y219.211 E18.84391
G1 X194.21 Y219.691 E18.88232
G1 X193.767 Y219.988 E18.90893
G1 X193.17 Y220.319 E18.94299
G1 X191.218 Y221.363 E19.05343
G1 X190.569 Y221.698 E19.08986
G1 X190.076 Y221.902 E19.11648
G1 X189.425 Y222.11 E19.15058
G1 X187.329 Y222.747 E19.25987
G1 X186.614 Y222.954 E19.29701
G1 X186.09 Y223.059 E19.32367
G1 X185.419 Y223.136 E19.35736
G1 X183.201 Y223.356 E19.46856
G1 X182.481 Y223.417 E19.50461
G1 X181.952 Y223.417 E19.53101
G1 X181.241 Y223.359 E19.5666
G1 X179.093 Y223.147 E19.67428
G1 X178.324 Y223.061 E19.71289
G1 X177.808 Y222.959 E19.73913
G1 X177.179 Y222.78 E19.77175
G1 X175.067 Y222.139 E19.88187
G1 X174.335 Y221.907 E19.92018
G1 X173.838 Y221.702 E19.947
G1 X173.269 Y221.409 E19.97893
G1 X171.315 Y220.365 E20.08946
G1 X170.637 Y219.991 E20.12809
G1 X170.2 Y219.699 E20.15431
G1 X169.699 Y219.302 E20.1862
G1 X167.991 Y217.902 E20.29638
G1 X167.384 Y217.39 E20.336
G1 X167.005 Y217.011 E20.36274
G1 X166.567 Y216.493 E20.39658
G1 X165.188 Y214.811 E20.50509
G1 X164.708 Y214.21 E20.54347
G1 X164.453 Y213.838 E20.56597
G1 X163.815 Y212.754 E20.62872
G1 X162.365 Y210.364 E20.76819
G1 X160.88 Y208.066 E20.90469
G1 X159.347 Y205.834 E21.03978
G1 X157.719 Y203.602 E21.17761
G1 X156.056 Y201.453 E21.31318
G1 X154.297 Y199.307 E21.45161
G1 X152.513 Y197.253 E21.58734
G1 X150.669 Y195.247 E21.72328
G1 X148.755 Y193.28 E21.86021
G1 X146.776 Y191.356 E21.99791
G1 X144.779 Y189.524 E22.13311
G1 X142.702 Y187.723 E22.27027
G1 X140.593 Y185.997 E22.40623
G1 X138.417 Y184.316 E22.54341
G1 X136.198 Y182.699 E22.68039
G1 X133.951 Y181.16 E22.81627
G1 X131.638 Y179.666 E22.95364
G1 X129.329 Y178.268 E23.08831
G1 X126.914 Y176.897 E23.22686
G1 X124.52 Y175.625 E23.3621
G1 X122.049 Y174.402 E23.49966
G1 X119.543 Y173.248 E23.6373
G1 X117.06 Y172.189 E23.77197
G1 X114.469 Y171.168 E23.91091
G1 X111.929 Y170.253 E24.04561
G1 X109.335 Y169.398 E24.18187
G1 X106.704 Y168.613 E24.31885
G1 X104.056 Y167.904 E24.45561
G1 X101.406 Y167.272 E24.59153
G1 X98.665 Y166.701 E24.73121
G1 X96.045 Y166.234 E24.86399
G1 X93.304 Y165.824 E25.00226
G1 X90.572 Y165.494 E25.13955
G1 X87.868 Y165.244 E25.27503
G1 X85.149 Y165.07 E25.41096
G1 X82.401 Y164.973 E25.54814
G1 X80.296 Y164.95 E25.65316
G1 X37.696 Y164.95 E27.77849
G1 X36.998 Y164.94 E27.81331
G1 X36.495 Y164.893 E27.83852
G0 F3600 X170.182 Y189.096
G1 F1800 X171.698 Y187.853 E27.93632
G1 X172.334 Y187.384 E27.97575
G1 X172.968 Y187.006 E28.01257
G1 X174.697 Y186.082 E28.11038
G1 X175.411 Y185.745 E28.14977
G1 X176.109 Y185.497 E28.18673
G1 X177.985 Y184.928 E28.28453
G1 X178.751 Y184.737 E28.32392
G1 X179.485 Y184.629 E28.36093
G1 X181.436 Y184.437 E28.45874
G1 X182.225 Y184.4 E28.49814
G1 X182.964 Y184.438 E28.53506
G1 X184.914 Y184.63 E28.63282
G1 X185.695 Y184.747 E28.67222
G1 X186.414 Y184.928 E28.70921
G1 X188.29 Y185.497 E28.80701
G1 X189.033 Y185.764 E28.8464
G1 X189.702 Y186.082 E28.88335
G1 X191.431 Y187.006 E28.98116
G1 X192.108 Y187.413 E29.02057
G1 X192.701 Y187.853 E29.05741
G1 X194.217 Y189.096 E29.15522
G1 X194.801 Y189.627 E29.19459
G1 X195.303 Y190.182 E29.23193
G1 X196.546 Y191.698 E29.32974
G1 X197.015 Y192.334 E29.36916
G1 X197.393 Y192.968 E29.40599
G1 X198.317 Y194.697 E29.50379
G1 X198.654 Y195.411 E29.54318
G1 X198.902 Y196.109 E29.58014
G1 X199.471 Y197.985 E29.67794
G1 X199.662 Y198.751 E29.71733
G1 X199.769 Y199.481 E29.75414
G1 X199.962 Y201.432 E29.85195
G1 X200 Y202.221 E29.89136
G1 X199.962 Y202.968 E29.92867
G1 X199.769 Y204.918 E30.02643
G1 X199.652 Y205.699 E30.06583
G1 X199.471 Y206.414 E30.10263
G1 X198.902 Y208.29 E30.20043
G1 X198.635 Y209.033 E30.23982
G1 X198.317 Y209.702 E30.27678
G1 X197.393 Y211.431 E30.37458
G1 X196.986 Y212.108 E30.41399
G1 X196.546 Y212.701 E30.45083
G1 X195.303 Y214.217 E30.54864
G1 X194.772 Y214.801 E30.58802
G1 X194.217 Y215.303 E30.62535
G1 X192.701 Y216.546 E30.72316
G1 X192.065 Y217.015 E30.76259
G1 X191.431 Y217.393 E30.79941
G1 X189.702 Y218.317 E30.89722
G1 X188.988 Y218.654 E30.93661
G1 X188.29 Y218.902 E30.97356
G1 X186.414 Y219.471 E31.07137
G1 X185.648 Y219.662 E31.11075
G1 X184.918 Y219.769 E31.14756
G1 X182.968 Y219.962 E31.24532
G1 X182.179 Y220 E31.28473
G1 X181.432 Y219.962 E31.32205
G1 X179.481 Y219.769 E31.41986
G1 X178.7 Y219.652 E31.45926
G1 X177.985 Y219.471 E31.49606
G1 X176.109 Y218.902 E31.59386
G1 X175.366 Y218.635 E31.63325
G1 X174.697 Y218.317 E31.6702
G1 X172.968 Y217.393 E31.76801
G1 X172.291 Y216.986 E31.80742
G1 X171.698 Y216.546 E31.84426
G1 X170.182 Y215.303 E31.94206
G1 X169.598 Y214.772 E31.98144
G1 X169.096 Y214.217 E32.01878
G1 X167.853 Y212.701 E32.11659
G1 X167.384 Y212.065 E32.15601
G1 X167.006 Y211.431 E32.19284
G1 X166.082 Y209.702 E32.29064
G1 X165.745 Y208.988 E32.33003
G1 X165.497 Y208.29 E32.36699
G1 X164.928 Y206.414 E32.46479
G1 X164.737 Y205.648 E32.50418
G1 X164.63 Y204.914 E32.54118
G1 X164.438 Y202.964 E32.63894
G1 X164.4 Y202.176 E32.6783
G1 X164.437 Y201.436 E32.71526
G1 X164.629 Y199.485 E32.81307
G1 X164.747 Y198.704 E32.85248
G1 X164.928 Y197.985 E32.88947
G1 X165.497 Y196.109 E32.98727
G1 X165.764 Y195.366 E33.02666
G1 X166.082 Y194.697 E33.06362
G1 X167.006 Y192.968 E33.16142
G1 X167.413 Y192.291 E33.20083
G1 X167.853 Y191.698 E33.23767
G1 X169.096 Y190.182 E33.33548
G1 X169.627 Y189.598 E33.37486
G1 X170.182 Y189.096 E33.41219
G0 F3600 X170.436 Y189.406
G1 F1800 X171.952 Y188.163 E33.51
G1 X172.571 Y187.706 E33.54838
G1 X173.156 Y187.359 E33.58232
G1 X174.885 Y186.435 E33.68012
G1 X175.581 Y186.108 E33.71849
G1 X176.225 Y185.88 E33.75257
G1 X178.101 Y185.311 E33.85038
G1 X178.848 Y185.126 E33.88877
G1 X179.524 Y185.028 E33.92285
G1 X181.475 Y184.836 E34.02065
G1 X182.244 Y184.8 E34.05906
G1 X182.925 Y184.836 E34.09308
G1 X184.875 Y185.028 E34.19084
G1 X185.636 Y185.143 E34.22924
G1 X186.298 Y185.311 E34.26331
G1 X188.174 Y185.88 E34.36112
G1 X188.897 Y186.141 E34.39947
G1 X189.514 Y186.435 E34.43356
G1 X191.243 Y187.359 E34.53137
G1 X191.901 Y187.756 E34.56971
G1 X192.447 Y188.163 E34.60369
G1 X193.963 Y189.406 E34.70149
G1 X194.532 Y189.924 E34.73988
G1 X194.993 Y190.436 E34.77425
G1 X196.236 Y191.952 E34.87206
G1 X196.693 Y192.571 E34.91045
G1 X197.04 Y193.156 E34.94438
G1 X197.964 Y194.885 E35.04219
G1 X198.291 Y195.581 E35.08055
G1 X198.519 Y196.225 E35.11463
G1 X199.088 Y198.101 E35.21244
G1 X199.273 Y198.848 E35.25083
G1 X199.371 Y199.521 E35.28476
G1 X199.564 Y201.472 E35.38257
G1 X199.6 Y202.24 E35.42093
G1 X199.564 Y202.929 E35.45535
G1 X199.371 Y204.879 E35.55311
G1 X199.256 Y205.639 E35.59146
G1 X199.088 Y206.298 E35.62539
G1 X198.519 Y208.174 E35.7232
G1 X198.258 Y208.897 E35.76154
G1 X197.964 Y209.514 E35.79564
G1 X197.04 Y211.243 E35.89345
G1 X196.643 Y211.901 E35.93179
G1 X196.236 Y212.447 E35.96576
G1 X194.993 Y213.963 E36.06357
G1 X194.475 Y214.532 E36.10196
G1 X193.963 Y214.993 E36.13633
G1 X192.447 Y216.236 E36.23414
G1 X191.828 Y216.693 E36.27252
G1 X191.243 Y217.04 E36.30646
G1 X189.514 Y217.964 E36.40426
G1 X188.818 Y218.291 E36.44263
G1 X188.174 Y218.519 E36.47671
G1 X186.298 Y219.088 E36.57452
G1 X185.551 Y219.273 E36.61291
G1 X184.879 Y219.371 E36.64679
G1 X182.929 Y219.564 E36.74455
G1 X182.161 Y219.6 E36.78291
G1 X181.472 Y219.564 E36.81733
G1 X179.521 Y219.371 E36.91514
G1 X178.76 Y219.256 E36.95354
G1 X178.101 Y219.088 E36.98747
G1 X176.225 Y218.519 E37.08527
G1 X175.502 Y218.258 E37.12362
G1 X174.885 Y217.964 E37.15772
G1 X173.156 Y217.04 E37.25553
G1 X172.498 Y216.643 E37.29387
G1 X171.952 Y216.236 E37.32784
G1 X170.436 Y214.993 E37.42565
G1 X169.867 Y214.475 E37.46404
G1 X169.406 Y213.963 E37.49841
G1 X168.163 Y212.447 E37.59622
G1 X167.706 Y211.828 E37.6346
G1 X167.359 Y211.243 E37.66854
G1 X166.435 Y209.514 E37.76634
G1 X166.108 Y208.818 E37.80471
G1 X165.88 Y208.174 E37.83879
G1 X165.311 Y206.298 E37.93659
G1 X165.126 Y205.551 E37.97499
G1 X165.028 Y204.875 E38.00907
G1 X164.836 Y202.925 E38.10682
G1 X164.8 Y202.157 E38.14518
G1 X164.836 Y201.475 E38.17925
G1 X165.028 Y199.524 E38.27706
G1 X165.143 Y198.764 E38.31541
G1 X165.311 Y198.101 E38.34953
G1 X165.88 Y196.225 E38.44733
G1 X166.141 Y195.502 E38.48568
G1 X166.435 Y194.885 E38.51978
G1 X167.359 Y193.156 E38.61759
G1 X167.756 Y192.498 E38.65593
G1 X168.163 Y191.952 E38.6899
G1 X169.406 Y190.436 E38.78771
G1 X169.924 Y189.867 E38.8261
G1 X170.436 Y189.406 E38.86047
G0 F3600 X170.69 Y189.715
G1 F1800 X172.206 Y188.472 E38.95828
G1 X172.809 Y188.029 E38.99561
G1 X173.345 Y187.711 E39.0267
G1 X175.074 Y186.787 E39.1245
G1 X175.751 Y186.47 E39.1618
G1 X176.341 Y186.262 E39.19301
G1 X178.217 Y185.693 E39.29081
G1 X178.944 Y185.515 E39.32816
G1 X179.563 Y185.426 E39.35936
G1 X181.514 Y185.234 E39.45716
G1 X182.262 Y185.2 E39.49452
G1 X182.886 Y185.234 E39.5257
G1 X184.836 Y185.426 E39.62345
G1 X185.575 Y185.539 E39.66075
G1 X186.182 Y185.693 E39.69199
G1 X188.058 Y186.262 E39.7898
G1 X188.761 Y186.517 E39.82711
G1 X189.325 Y186.787 E39.8583
G1 X191.054 Y187.711 E39.95611
G1 X191.694 Y188.099 E39.99345
G1 X192.193 Y188.472 E40.02453
G1 X193.709 Y189.715 E40.12233
G1 X194.262 Y190.219 E40.15966
G1 X194.684 Y190.69 E40.19121
G1 X195.927 Y192.206 E40.28902
G1 X196.37 Y192.809 E40.32635
G1 X196.688 Y193.345 E40.35744
G1 X197.612 Y195.074 E40.45525
G1 X197.929 Y195.751 E40.49254
G1 X198.137 Y196.341 E40.52375
G1 X198.706 Y198.217 E40.62156
G1 X198.884 Y198.944 E40.6589
G1 X198.973 Y199.56 E40.68995
G1 X199.166 Y201.511 E40.78776
G1 X199.2 Y202.258 E40.82507
G1 X199.166 Y202.889 E40.8566
G1 X198.973 Y204.839 E40.95436
G1 X198.86 Y205.579 E40.9917
G1 X198.706 Y206.182 E41.02275
G1 X198.137 Y208.058 E41.12056
G1 X197.882 Y208.761 E41.15787
G1 X197.612 Y209.325 E41.18906
G1 X196.688 Y211.054 E41.28687
G1 X196.3 Y211.694 E41.32421
G1 X195.927 Y212.193 E41.35529
G1 X194.684 Y213.709 E41.45309
G1 X194.18 Y214.262 E41.49042
G1 X193.709 Y214.684 E41.52197
G1 X192.193 Y215.927 E41.61978
G1 X191.59 Y216.37 E41.65711
G1 X191.054 Y216.688 E41.6882
G1 X189.325 Y217.612 E41.78601
G1 X188.648 Y217.929 E41.8233
G1 X188.058 Y218.137 E41.85451
G1 X186.182 Y218.706 E41.95232
G1 X185.455 Y218.884 E41.98966
G1 X184.839 Y218.973 E42.02071
G1 X182.889 Y219.166 E42.11847
G1 X182.142 Y219.2 E42.15578
G1 X181.511 Y219.166 E42.18731
G1 X179.56 Y218.973 E42.28512
G1 X178.82 Y218.86 E42.32246
G1 X178.217 Y218.706 E42.35351
G1 X176.341 Y218.137 E42.45132
G1 X175.638 Y217.882 E42.48863
G1 X175.074 Y217.612 E42.51982
G1 X173.345 Y216.688 E42.61763
G1 X172.705 Y216.3 E42.65497
G1 X172.206 Y215.927 E42.68605
G1 X170.69 Y214.684 E42.78385
G1 X170.137 Y214.18 E42.82118
G1 X169.715 Y213.709 E42.85273
G1 X168.472 Y212.193 E42.95054
G1 X168.029 Y211.59 E42.98787
G1 X167.711 Y211.054 E43.01896
G1 X166.787 Y209.325 E43.11677
G1 X166.47 Y208.648 E43.15406
G1 X166.262 Y208.058 E43.18527
G1 X165.693 Y206.182 E43.28308
G1 X165.515 Y205.455 E43.32042
G1 X165.426 Y204.836 E43.35162
G1 X165.234 Y202.886 E43.44938
G1 X165.2 Y202.139 E43.48668
G1 X165.234 Y201.514 E43.51791
G1 X165.426 Y199.563 E43.61572
G1 X165.539 Y198.824 E43.65301
G1 X165.693 Y198.217 E43.68426
G1 X166.262 Y196.341 E43.78206
G1 X166.517 Y195.638 E43.81937
G1 X166.787 Y195.074 E43.85057
G1 X167.711 Y193.345 E43.94837
G1 X168.099 Y192.705 E43.98571
G1 X168.472 Y192.206 E44.01679
G1 X169.715 Y190.69 E44.1146
G1 X170.219 Y190.137 E44.15193
G1 X170.69 Y189.715 E44.18348
G0 F3600 X170.943 Y190.024
G1 F1800 X172.459 Y188.781 E44.28128
G1 X173.046 Y188.352 E44.31756
G1 X173.533 Y188.064 E44.34578
G1 X175.262 Y187.14 E44.44359
G1 X175.921 Y186.833 E44.47986
G1 X176.457 Y186.645 E44.5082
G1 X178.333 Y186.076 E44.606
